icons/svg/placeholder_12.svg

<?xml version="1.0" encoding="UTF-8"?>
<svg width="12px" height="12px" viewBox="0 0 12 12" version="1.1" xmlns="http://www.w3.org/2000/svg" xmlns:xlink="http://www.w3.org/1999/xlink">
    <!-- Generator: Sketch 57.1 (83088) - https://sketch.com -->
    <title>placeholder_12</title>
    <desc>Created with Sketch.</desc>
    <g id="Icons-Webex" stroke="none" stroke-width="1" fill="none" fill-rule="evenodd">
        <g id="content/placeholder_12" fill="#171B1F">
            <path d="M2,0 L10,0 C11.1045695,0 12,0.8954305 12,2 L12,10 C12,11.1045695 11.1045695,12 10,12 L2,12 C0.8954305,12 0,11.1045695 0,10 L0,2 C0,0.8954305 0.8954305,0 2,0 Z M2,1 C1.44771525,1 1,1.44771525 1,2 L1,10 C1,10.5522847 1.44771525,11 2,11 L10,11 C10.5522847,11 11,10.5522847 11,10 L11,2 C11,1.44771525 10.5522847,1 10,1 L2,1 Z" id="fill"></path>
        </g>
    </g>
</svg>

<svg width="12" height="12" xmlns="http://www.w3.org/2000/svg"><path d="M2 0h8a2 2 0 012 2v8a2 2 0 01-2 2H2a2 2 0 01-2-2V2a2 2 0 012-2zm0 1a1 1 0 00-1 1v8a1 1 0 001 1h8a1 1 0 001-1V2a1 1 0 00-1-1H2z" fill="#171B1F" fill-rule="evenodd"/></svg>
